X: 35916
T: Sandy's New Chanter
R: hornpipe
M: 4/4
K: Gmajor
|:B2AB BDGB|c2Bc EccE|BDGB Bdcd|ADFA AdcA|
B2AB BDGB|c2Bc EccE|BDGB ADFA|1 G4 G2dc:|2 G4 G2D2||
|:d2Bd GBBD|c2Bc EccE|BDGB Bdcd|ADFA AdcA|
[1 d2Bd GBBD|c2Bc EccE|BDGB ADFA|G4 G2D2:|
[2 B2AB BDGB|c2Bc EEc2|BDGB ADFA|G4 G2DG||
|:BD D/D/D DBBD|cE E2 Ecdc|BD D/D/D Gdcd|ADFA AdcA|
BD D/D/D DBBD|cE E2 Ecdc|BDGB ADFA|1 G4 G2 DG:|2 G4 G2 D2||
|:d2 d2 BcdB|cEEc EGcA|BD D/D/D Gdcd|ADFA AdcA|
[1 d2d2 BcdB|cEEc EGcA|BDGB ADFA|G4 G2D2:|
[2 B2AB BDGB|c2Bc EccE|BDGB ADFA|G4 G2z2||
|:BDDB DDBD|cEEc EEcE|BDDB DDBD|ADBD cDdc|
BDDB DDBD|cEEc EEcE|BDGB ADFA|G4 G4:|

